!!!OTL: Das Traenenkrueglein
!!!OTL-incipit:Ich hab' ja mein Feinsliebchen,
!!!ARE: Europa, Mitteleuropa, Deutschland (BRD), Baden, Oberschefflenz
!!!YOR: 5, S. 334
!!    1902 gedruckt in Karlsruhe
!!!SCT: Q1122C
!!!TXL: @@DE
!!!YEM: Copyright 1995, estate of Helmut Schaffrath.
**kern	**text
*ICvox	*
!! Mixed meters:  3/4; 2/4
*M3/4	*
*k[f#]	*
*G:	*
!LO:TX:a:t=Bender S. 63f.	!
{8d	Jch
=1	=1
8gL	hab'
8gJ	ja
4b	mein
4dd	Feins-
=2	=2
4cc	-lieb-
4a	-chen,
8r}	.
{8g	ich
=3	=3
8f#L	hab'
8gJ	ja
4a	mein
4ee	Feins-
=4	=4
4dd	-lieb-
4b	-chen
8r}	.
{8g	schon
=5	=5
8gL	längst
8bJ	nicht
4dd	mehr
(8ddL	ge-
8ggJ)	.
=6	=6
4ee	-sehn,
8r}	.
{8dd	schon
8eeL	längst
(16dd	nicht
16ccJ)	.
=7	=7
*M2/4	*
4dd	mehr
4dd	ge-
=8	=8
*M3/4	*
2b	-sehn.
8r}	.
==	==
!!!AGN: ???
!! Melodievergleich zu Q0122A und B, anderes Lied.
!!!ONB: ESAC (Essen Associative Code) Database: BALLADE
!!!AMT: irregular
!!!AIN: vox
!!!EED: Helmut Schaffrath
!!!EEV: 1.0
!!!source: Deutsche Volkslieder mit ihren Melodien Balladen. Herausgegeben vom Deutschen Volksliedarchiv. Fünfter Teil. Freiburg/Breisgau 1965.
!!!page: 334
!!!ENC: Anna Maria Matuszewska
!!!EEV: 2025/03/05
*-	*-
